Newaita-dark/apps/64/latexila.svg

<svg height="64pt" viewBox="0 0 64 64" width="64pt" xmlns="http://www.w3.org/2000/svg" xmlns:xlink="http://www.w3.org/1999/xlink"><linearGradient id="a" gradientUnits="userSpaceOnUse" x1="31.753043" x2="31.753043" y1="56.067871" y2="58.71395875004"><stop offset="0" stop-opacity=".27451"/><stop offset="1" stop-opacity="0"/></linearGradient><linearGradient id="b"><stop offset="0" stop-opacity=".313725"/><stop offset=".222222" stop-opacity=".27451"/><stop offset="1" stop-opacity="0"/></linearGradient><radialGradient id="c" cx="450.90894" cy="189.57936" gradientTransform="matrix(.00000035 -.156265 -.281277 -.0000002 97.64609 127.190669)" gradientUnits="userSpaceOnUse" r="21.166656" xlink:href="#b"/><radialGradient id="d" cx="450.90894" cy="189.57936" gradientTransform="matrix(-.00000035 .156265 .281277 .0000002 -35.46306 -15.054958)" gradientUnits="userSpaceOnUse" r="21.166656" xlink:href="#b"/><radialGradient id="e" cx="450.90894" cy="189.57936" gradientTransform="matrix(-.00000035 -.156265 .281277 -.0000002 -35.463061 127.19067)" gradientUnits="userSpaceOnUse" r="21.166656" xlink:href="#b"/><radialGradient id="f" cx="450.90894" cy="189.57936" gradientTransform="matrix(.00000035 .156265 -.281277 .0000002 97.646086 -15.054959)" gradientUnits="userSpaceOnUse" r="21.166656" xlink:href="#b"/><linearGradient id="g" gradientUnits="userSpaceOnUse" x1="31.091534" x2="31.091534" y1="56.06789909502" y2="5.79222444893"><stop offset="0" stop-color="#ffca28"/><stop offset="1" stop-color="#ffd54f"/></linearGradient><linearGradient id="h"><stop offset="0" stop-color="#26a69a"/><stop offset="1" stop-color="#4db6ac"/></linearGradient><linearGradient id="i" gradientUnits="userSpaceOnUse" x1="31.091534" x2="31.091534" xlink:href="#h" y1="56.06789909502" y2="5.79222444893"/><linearGradient id="j" gradientTransform="matrix(.0233883 .0233883 -.0233883 .0233883 41.675153 3.895987)" gradientUnits="userSpaceOnUse" x1="1157.7817" x2="614.72894" xlink:href="#h" y1="1072.8989" y2="504.99619"/><path d="m17.199219 56.066406h27.785156v2.648438h-27.785156zm0 0" fill="url(#a)"/><path d="m44.984375 56.066406h5.292969v-2.644531h-5.292969zm0 0" fill="url(#c)"/><path d="m17.199219 56.066406h-5.292969v2.648438h5.292969zm0 0" fill="url(#d)"/><path d="m17.199219 56.066406h-5.292969v-2.644531h5.292969zm0 0" fill="url(#e)"/><path d="m44.984375 56.066406h5.292969v2.648438h-5.292969zm0 0" fill="url(#f)"/><path d="m14.554688 5.792969c-1.46875 0-2.648438 1.179687-2.648438 2.644531v44.984375c0 1.464844 1.179688 2.644531 2.648438 2.644531h33.074218c1.464844 0 2.648438-1.179687 2.648438-2.644531v-35.722656l-11.910156-11.90625zm26.460937 0 9.261719 9.261719v-6.617188c0-1.464844-1.183594-2.644531-2.648438-2.644531zm0 0" fill="url(#g)"/><path d="m41.015625 5.792969 9.261719 9.261719v-6.617188c0-1.464844-1.183594-2.644531-2.648438-2.644531zm0 0" fill="url(#i)"/><path d="m14.554688 5.792969c-1.46875 0-2.648438 1.179687-2.648438 2.644531v.664062c0-1.46875 1.179688-2.648437 2.648438-2.648437h23.8125l11.910156 11.90625v-.660156l-11.910156-11.90625zm26.460937 0 .660156.660156h5.953125c1.464844 0 2.648438 1.179687 2.648438 2.648437v-.664062c0-1.464844-1.183594-2.644531-2.648438-2.644531zm0 0" fill="#fff" fill-opacity=".392157"/><path d="m41.015625 5.792969 9.261719 9.261719v-.984376l-8.28125-8.277343zm-29.109375 46.648437v.980469c0 1.464844 1.179688 2.644531 2.648438 2.644531h33.074218c1.464844 0 2.648438-1.179687 2.648438-2.644531v-.980469c0 1.464844-1.183594 2.644532-2.648438 2.644532h-33.074218c-1.46875 0-2.648438-1.179688-2.648438-2.644532zm0 0" fill-opacity=".235294"/><path d="m14.554688 5.605469c-1.566407 0-2.835938 1.265625-2.835938 2.832031v44.984375c0 1.566406 1.269531 2.832031 2.835938 2.832031h33.074218c1.566406 0 2.835938-1.265625 2.835938-2.832031v-35.722656c0-.050781-.019532-.097657-.054688-.132813l-11.910156-11.90625c-.035156-.035156-.082031-.054687-.132812-.054687zm26.460937 0c-.078125 0-.144531.042969-.175781.113281-.027344.070312-.011719.152344.042968.207031l9.261719 9.261719c.050781.050781.132813.066406.203125.039062.070313-.027343.117188-.097656.117188-.171874v-6.617188c0-1.566406-1.269532-2.832031-2.835938-2.832031zm-26.460937.375h23.734374l11.800782 11.796875v35.644531c0 1.363281-1.09375 2.457031-2.460938 2.457031h-33.074218c-1.367188 0-2.460938-1.09375-2.460938-2.457031v-44.984375c0-1.363281 1.09375-2.457031 2.460938-2.457031zm26.914062 0h6.160156c1.367188 0 2.460938 1.09375 2.460938 2.457031v6.164062zm0 0" fill="#212121"/><path d="m49.742188 34.34375c-.675782 0-1.355469.261719-1.871094.777344l-10.757813 10.757812 6.546875 6.550782 10.757813-10.757813c1.039062-1.039063 1.039062-2.707031 0-3.742187l-2.804688-2.808594c-.519531-.515625-1.195312-.777344-1.871093-.777344zm-14.035157 12.941406c-.148437.148438-.269531.34375-.335937.570313l-1.871094 6.550781c-.28125.996094.640625 1.917969 1.636719 1.632812l6.546875-1.871093c.230468-.066407.421875-.183594.574218-.335938zm0 0" fill="url(#j)"/><path d="m49.742188 34.34375c-.675782 0-1.355469.261719-1.871094.777344l-10.757813 10.757812.546875.550782.855469-.851563 9.355469-9.355469c1.035156-1.035156 2.703125-1.035156 3.742187 0l2.804688 2.804688c.378906.378906.617187.839844.71875 1.324218.179687-.847656-.058594-1.761718-.71875-2.421874l-2.804688-2.808594c-.519531-.515625-1.195312-.777344-1.871093-.777344zm0 0" fill="#d7d7d7" fill-opacity=".588235"/><path d="m49.742188 34.34375c-.675782 0-1.355469.261719-1.871094.777344l-10.757813 10.757812.359375.363282 1.042969-1.046876 9.355469-9.351562c.03125-.035156.066406-.066406.097656-.097656.035156-.027344.066406-.058594.101562-.085938.054688-.042968.105469-.082031.160157-.121094.054687-.039062.109375-.074218.167969-.105468.074218-.046875.152343-.085938.230468-.125.273438-.125.5625-.203125.859375-.230469.082031-.007813.167969-.011719.253907-.011719.082031 0 .167968.003906.253906.011719.292968.027344.585937.105469.859375.230469.078125.039062.15625.078125.230469.125.054687.03125.109374.066406.164062.105468.054688.039063.109375.078126.160156.121094.035156.027344.070313.058594.101563.085938.035156.03125.066406.0625.101562.097656l2.804688 2.804688c.023437.023437.046875.046874.070312.074218l.023438.023438c.015625.015625.03125.035156.046875.050781.007812.011719.015625.019531.023437.027344.015625.019531.03125.042969.046875.0625.003906.003906.007813.011719.011719.015625.023437.027344.042969.054687.0625.082031.003906.003906.007813.007813.011719.015625.015625.023438.03125.042969.042968.066406.007813.007813.011719.015625.015626.023438.015624.019531.03125.042968.042968.066406.003906.007812.007813.011719.011719.015625.015625.03125.03125.058594.050781.089844.015625.027343.027344.058593.042969.085937.003906.007813.007813.015625.011719.019532.011718.023437.019531.050781.03125.074218.003906.007813.007812.011719.011718.019532.011719.03125.023438.058593.035157.089843s.027343.066407.035156.097657c0 .003906 0 .003906.003906.003906.007813.03125.019531.0625.03125.09375v.007812c.011719.03125.019531.066406.027344.097656.019531.066407.03125.132813.046875.203126v.003906c.003906.03125.011719.066406.015625.097656v.003906c.109375-.792968-.140625-1.621094-.753906-2.230468l-2.804688-2.808594c-.519531-.515625-1.195312-.777344-1.871093-.777344zm-14.035157 12.941406c-.148437.148438-.269531.34375-.335937.570313l-1.871094 6.550781c-.070312.253906-.066406.5 0 .726562 0-.003906 0-.003906 0-.007812l1.871094-6.546875c.066406-.230469.1875-.421875.335937-.574219l6.117188 6.117188c.167969-.070313.3125-.167969.433593-.289063zm0 0" fill="#d7d7d7" fill-opacity=".588235" fill-rule="evenodd"/><path d="m55.175781 39.46875c-.070312.5625-.324219 1.105469-.757812 1.539062l-9.355469 9.355469-1.402344 1.40625-6.21875-6.21875-.328125.328125 6.546875 6.550782 10.757813-10.757813c.605469-.605469.855469-1.421875.757812-2.203125zm-13.3125 13.972656c-.054687.023438-.117187.046875-.179687.066406l-6.546875 1.871094c-.753907.214844-1.464844-.261718-1.644531-.9375-.253907.984375.660156 1.878906 1.644531 1.597656l6.546875-1.871093c.230468-.066407.421875-.183594.574218-.335938zm0 0" fill-opacity=".235294"/><g fill="none" stroke="#212121" stroke-linecap="round" stroke-linejoin="round" stroke-width="3" transform="matrix(.125012 0 0 .125012 0 26.877566)"><path d="m412.866823 65.941921c-8.311706-8.280459-21.654182-8.280459-29.934641 0l-86.054282 86.054283 52.369998 52.401246 86.054283-86.054283c8.311706-8.311706 8.311706-21.654182 0-29.934641zm0 0"/><path d="m285.628974 163.245129c-1.187387 1.187387-2.156044 2.749738-2.687244 4.562065l-14.96732 52.401246c-2.249785 7.967989 5.12451 15.342285 13.092499 13.061252l52.369999-14.96732c1.843574-.5312 3.374678-1.46861 4.593312-2.687244zm0 0"/></g></svg>

<?xml version="1.0" encoding="UTF-8"?>
<svg xmlns="http://www.w3.org/2000/svg" xmlns:xlink="http://www.w3.org/1999/xlink" width="64pt" height="64pt" viewBox="0 0 64 64" version="1.1">
<defs>
<linearGradient id="linear0" gradientUnits="userSpaceOnUse" x1="254" y1="233.5" x2="254" y2="254.66667" gradientTransform="matrix(0.125012,0,0,0.125012,-0.00000500048,26.877569)">
<stop offset="0" style="stop-color:rgb(0%,0%,0%);stop-opacity:0.27451;"/>
<stop offset="1" style="stop-color:rgb(0%,0%,0%);stop-opacity:0;"/>
</linearGradient>
<radialGradient id="radial0" gradientUnits="userSpaceOnUse" cx="450.90894" cy="189.57936" fx="450.90894" fy="189.57936" r="21.166656" gradientTransform="matrix(0.000000348341,-0.156265,-0.281277,-0.000000203077,97.64609,127.190669)">
<stop offset="0" style="stop-color:rgb(0%,0%,0%);stop-opacity:0.313725;"/>
<stop offset="0.222222" style="stop-color:rgb(0%,0%,0%);stop-opacity:0.27451;"/>
<stop offset="1" style="stop-color:rgb(0%,0%,0%);stop-opacity:0;"/>
</radialGradient>
<radialGradient id="radial1" gradientUnits="userSpaceOnUse" cx="450.90894" cy="189.57936" fx="450.90894" fy="189.57936" r="21.166656" gradientTransform="matrix(-0.000000348341,0.156265,0.281277,0.000000203077,-35.46306,-15.054958)">
<stop offset="0" style="stop-color:rgb(0%,0%,0%);stop-opacity:0.313725;"/>
<stop offset="0.222222" style="stop-color:rgb(0%,0%,0%);stop-opacity:0.27451;"/>
<stop offset="1" style="stop-color:rgb(0%,0%,0%);stop-opacity:0;"/>
</radialGradient>
<radialGradient id="radial2" gradientUnits="userSpaceOnUse" cx="450.90894" cy="189.57936" fx="450.90894" fy="189.57936" r="21.166656" gradientTransform="matrix(-0.000000348341,-0.156265,0.281277,-0.000000203077,-35.463061,127.19067)">
<stop offset="0" style="stop-color:rgb(0%,0%,0%);stop-opacity:0.313725;"/>
<stop offset="0.222222" style="stop-color:rgb(0%,0%,0%);stop-opacity:0.27451;"/>
<stop offset="1" style="stop-color:rgb(0%,0%,0%);stop-opacity:0;"/>
</radialGradient>
<radialGradient id="radial3" gradientUnits="userSpaceOnUse" cx="450.90894" cy="189.57936" fx="450.90894" fy="189.57936" r="21.166656" gradientTransform="matrix(0.000000348341,0.156265,-0.281277,0.000000203077,97.646086,-15.054959)">
<stop offset="0" style="stop-color:rgb(0%,0%,0%);stop-opacity:0.313725;"/>
<stop offset="0.222222" style="stop-color:rgb(0%,0%,0%);stop-opacity:0.27451;"/>
<stop offset="1" style="stop-color:rgb(0%,0%,0%);stop-opacity:0;"/>
</radialGradient>
<linearGradient id="linear1" gradientUnits="userSpaceOnUse" x1="940" y1="1695.1182" x2="940" y2="175.11812" gradientTransform="matrix(0.0330761,0,0,0.0330761,0,0)">
<stop offset="0" style="stop-color:rgb(100%,79.215686%,15.686275%);stop-opacity:1;"/>
<stop offset="1" style="stop-color:rgb(100%,83.529412%,30.980392%);stop-opacity:1;"/>
</linearGradient>
<linearGradient id="linear2" gradientUnits="userSpaceOnUse" x1="940" y1="1695.1182" x2="940" y2="175.11812" gradientTransform="matrix(0.0330761,0,0,0.0330761,0,0)">
<stop offset="0" style="stop-color:rgb(14.901961%,65.098039%,60.392157%);stop-opacity:1;"/>
<stop offset="1" style="stop-color:rgb(30.196078%,71.372549%,67.45098%);stop-opacity:1;"/>
</linearGradient>
<linearGradient id="linear3" gradientUnits="userSpaceOnUse" x1="1157.7817" y1="1072.8989" x2="614.72894" y2="504.99619" gradientTransform="matrix(0.0233883,0.0233883,-0.0233883,0.0233883,41.675153,3.895987)">
<stop offset="0" style="stop-color:rgb(14.901961%,65.098039%,60.392157%);stop-opacity:1;"/>
<stop offset="1" style="stop-color:rgb(30.196078%,71.372549%,67.45098%);stop-opacity:1;"/>
</linearGradient>
</defs>
<g id="surface1">
<path style=" stroke:none;fill-rule:nonzero;fill:url(#linear0);" d="M 17.199219 56.066406 L 44.984375 56.066406 L 44.984375 58.714844 L 17.199219 58.714844 Z M 17.199219 56.066406 "/>
<path style=" stroke:none;fill-rule:nonzero;fill:url(#radial0);" d="M 44.984375 56.066406 L 50.277344 56.066406 L 50.277344 53.421875 L 44.984375 53.421875 Z M 44.984375 56.066406 "/>
<path style=" stroke:none;fill-rule:nonzero;fill:url(#radial1);" d="M 17.199219 56.066406 L 11.90625 56.066406 L 11.90625 58.714844 L 17.199219 58.714844 Z M 17.199219 56.066406 "/>
<path style=" stroke:none;fill-rule:nonzero;fill:url(#radial2);" d="M 17.199219 56.066406 L 11.90625 56.066406 L 11.90625 53.421875 L 17.199219 53.421875 Z M 17.199219 56.066406 "/>
<path style=" stroke:none;fill-rule:nonzero;fill:url(#radial3);" d="M 44.984375 56.066406 L 50.277344 56.066406 L 50.277344 58.714844 L 44.984375 58.714844 Z M 44.984375 56.066406 "/>
<path style=" stroke:none;fill-rule:nonzero;fill:url(#linear1);" d="M 14.554688 5.792969 C 13.085938 5.792969 11.90625 6.972656 11.90625 8.4375 L 11.90625 53.421875 C 11.90625 54.886719 13.085938 56.066406 14.554688 56.066406 L 47.628906 56.066406 C 49.09375 56.066406 50.277344 54.886719 50.277344 53.421875 L 50.277344 17.699219 L 38.367188 5.792969 Z M 41.015625 5.792969 L 50.277344 15.054688 L 50.277344 8.4375 C 50.277344 6.972656 49.09375 5.792969 47.628906 5.792969 Z M 41.015625 5.792969 "/>
<path style=" stroke:none;fill-rule:nonzero;fill:url(#linear2);" d="M 41.015625 5.792969 L 50.277344 15.054688 L 50.277344 8.4375 C 50.277344 6.972656 49.09375 5.792969 47.628906 5.792969 Z M 41.015625 5.792969 "/>
<path style=" stroke:none;fill-rule:nonzero;fill:rgb(100%,100%,100%);fill-opacity:0.392157;" d="M 14.554688 5.792969 C 13.085938 5.792969 11.90625 6.972656 11.90625 8.4375 L 11.90625 9.101562 C 11.90625 7.632812 13.085938 6.453125 14.554688 6.453125 L 38.367188 6.453125 L 50.277344 18.359375 L 50.277344 17.699219 L 38.367188 5.792969 Z M 41.015625 5.792969 L 41.675781 6.453125 L 47.628906 6.453125 C 49.09375 6.453125 50.277344 7.632812 50.277344 9.101562 L 50.277344 8.4375 C 50.277344 6.972656 49.09375 5.792969 47.628906 5.792969 Z M 41.015625 5.792969 "/>
<path style=" stroke:none;fill-rule:nonzero;fill:rgb(0%,0%,0%);fill-opacity:0.235294;" d="M 41.015625 5.792969 L 50.277344 15.054688 L 50.277344 14.070312 L 41.996094 5.792969 Z M 11.90625 52.441406 L 11.90625 53.421875 C 11.90625 54.886719 13.085938 56.066406 14.554688 56.066406 L 47.628906 56.066406 C 49.09375 56.066406 50.277344 54.886719 50.277344 53.421875 L 50.277344 52.441406 C 50.277344 53.90625 49.09375 55.085938 47.628906 55.085938 L 14.554688 55.085938 C 13.085938 55.085938 11.90625 53.90625 11.90625 52.441406 Z M 11.90625 52.441406 "/>
<path style=" stroke:none;fill-rule:nonzero;fill:rgb(12.941176%,12.941176%,12.941176%);fill-opacity:1;" d="M 14.554688 5.605469 C 12.988281 5.605469 11.71875 6.871094 11.71875 8.4375 L 11.71875 53.421875 C 11.71875 54.988281 12.988281 56.253906 14.554688 56.253906 L 47.628906 56.253906 C 49.195312 56.253906 50.464844 54.988281 50.464844 53.421875 L 50.464844 17.699219 C 50.464844 17.648438 50.445312 17.601562 50.410156 17.566406 L 38.5 5.660156 C 38.464844 5.625 38.417969 5.605469 38.367188 5.605469 Z M 41.015625 5.605469 C 40.9375 5.605469 40.871094 5.648438 40.839844 5.71875 C 40.8125 5.789062 40.828125 5.871094 40.882812 5.925781 L 50.144531 15.1875 C 50.195312 15.238281 50.277344 15.253906 50.347656 15.226562 C 50.417969 15.199219 50.464844 15.128906 50.464844 15.054688 L 50.464844 8.4375 C 50.464844 6.871094 49.195312 5.605469 47.628906 5.605469 Z M 14.554688 5.980469 L 38.289062 5.980469 L 50.089844 17.777344 L 50.089844 53.421875 C 50.089844 54.785156 48.996094 55.878906 47.628906 55.878906 L 14.554688 55.878906 C 13.1875 55.878906 12.09375 54.785156 12.09375 53.421875 L 12.09375 8.4375 C 12.09375 7.074219 13.1875 5.980469 14.554688 5.980469 Z M 41.46875 5.980469 L 47.628906 5.980469 C 48.996094 5.980469 50.089844 7.074219 50.089844 8.4375 L 50.089844 14.601562 Z M 41.46875 5.980469 "/>
<path style=" stroke:none;fill-rule:nonzero;fill:url(#linear3);" d="M 49.742188 34.34375 C 49.066406 34.34375 48.386719 34.605469 47.871094 35.121094 L 37.113281 45.878906 L 43.660156 52.429688 L 54.417969 41.671875 C 55.457031 40.632812 55.457031 38.964844 54.417969 37.929688 L 51.613281 35.121094 C 51.09375 34.605469 50.417969 34.34375 49.742188 34.34375 Z M 35.707031 47.285156 C 35.558594 47.433594 35.4375 47.628906 35.371094 47.855469 L 33.5 54.40625 C 33.21875 55.402344 34.140625 56.324219 35.136719 56.039062 L 41.683594 54.167969 C 41.914062 54.101562 42.105469 53.984375 42.257812 53.832031 Z M 35.707031 47.285156 "/>
<path style=" stroke:none;fill-rule:nonzero;fill:rgb(84.313725%,84.313725%,84.313725%);fill-opacity:0.588235;" d="M 49.742188 34.34375 C 49.066406 34.34375 48.386719 34.605469 47.871094 35.121094 L 37.113281 45.878906 L 37.660156 46.429688 L 38.515625 45.578125 L 47.871094 36.222656 C 48.90625 35.1875 50.574219 35.1875 51.613281 36.222656 L 54.417969 39.027344 C 54.796875 39.40625 55.035156 39.867188 55.136719 40.351562 C 55.316406 39.503906 55.078125 38.589844 54.417969 37.929688 L 51.613281 35.121094 C 51.09375 34.605469 50.417969 34.34375 49.742188 34.34375 Z M 49.742188 34.34375 "/>
<path style=" stroke:none;fill-rule:evenodd;fill:rgb(84.313725%,84.313725%,84.313725%);fill-opacity:0.588235;" d="M 49.742188 34.34375 C 49.066406 34.34375 48.386719 34.605469 47.871094 35.121094 L 37.113281 45.878906 L 37.472656 46.242188 L 38.515625 45.195312 L 47.871094 35.84375 C 47.902344 35.808594 47.9375 35.777344 47.96875 35.746094 C 48.003906 35.71875 48.035156 35.6875 48.070312 35.660156 C 48.125 35.617188 48.175781 35.578125 48.230469 35.539062 C 48.285156 35.5 48.339844 35.464844 48.398438 35.433594 C 48.472656 35.386719 48.550781 35.347656 48.628906 35.308594 C 48.902344 35.183594 49.191406 35.105469 49.488281 35.078125 C 49.570312 35.070312 49.65625 35.066406 49.742188 35.066406 C 49.824219 35.066406 49.910156 35.070312 49.996094 35.078125 C 50.289062 35.105469 50.582031 35.183594 50.855469 35.308594 C 50.933594 35.347656 51.011719 35.386719 51.085938 35.433594 C 51.140625 35.464844 51.195312 35.5 51.25 35.539062 C 51.304688 35.578125 51.359375 35.617188 51.410156 35.660156 C 51.445312 35.6875 51.480469 35.71875 51.511719 35.746094 C 51.546875 35.777344 51.578125 35.808594 51.613281 35.84375 L 54.417969 38.648438 C 54.441406 38.671875 54.464844 38.695312 54.488281 38.722656 C 54.496094 38.730469 54.503906 38.738281 54.511719 38.746094 C 54.527344 38.761719 54.542969 38.78125 54.558594 38.796875 C 54.566406 38.808594 54.574219 38.816406 54.582031 38.824219 C 54.597656 38.84375 54.613281 38.867188 54.628906 38.886719 C 54.632812 38.890625 54.636719 38.898438 54.640625 38.902344 C 54.664062 38.929688 54.683594 38.957031 54.703125 38.984375 C 54.707031 38.988281 54.710938 38.992188 54.714844 39 C 54.730469 39.023438 54.746094 39.042969 54.757812 39.066406 C 54.765625 39.074219 54.769531 39.082031 54.773438 39.089844 C 54.789062 39.109375 54.804688 39.132812 54.816406 39.15625 C 54.820312 39.164062 54.824219 39.167969 54.828125 39.171875 C 54.84375 39.203125 54.859375 39.230469 54.878906 39.261719 C 54.894531 39.289062 54.90625 39.320312 54.921875 39.347656 C 54.925781 39.355469 54.929688 39.363281 54.933594 39.367188 C 54.945312 39.390625 54.953125 39.417969 54.964844 39.441406 C 54.96875 39.449219 54.972656 39.453125 54.976562 39.460938 C 54.988281 39.492188 55 39.519531 55.011719 39.550781 C 55.023438 39.582031 55.039062 39.617188 55.046875 39.648438 C 55.046875 39.652344 55.046875 39.652344 55.050781 39.652344 C 55.058594 39.683594 55.070312 39.714844 55.082031 39.746094 C 55.082031 39.75 55.082031 39.75 55.082031 39.753906 C 55.09375 39.785156 55.101562 39.820312 55.109375 39.851562 C 55.128906 39.917969 55.140625 39.984375 55.15625 40.054688 C 55.15625 40.054688 55.15625 40.058594 55.15625 40.058594 C 55.160156 40.089844 55.167969 40.125 55.171875 40.15625 C 55.171875 40.15625 55.171875 40.160156 55.171875 40.160156 C 55.28125 39.367188 55.03125 38.539062 54.417969 37.929688 L 51.613281 35.121094 C 51.09375 34.605469 50.417969 34.34375 49.742188 34.34375 Z M 35.707031 47.285156 C 35.558594 47.433594 35.4375 47.628906 35.371094 47.855469 L 33.5 54.40625 C 33.429688 54.660156 33.433594 54.90625 33.5 55.132812 C 33.5 55.128906 33.5 55.128906 33.5 55.125 L 35.371094 48.578125 C 35.4375 48.347656 35.558594 48.15625 35.707031 48.003906 L 41.824219 54.121094 C 41.992188 54.050781 42.136719 53.953125 42.257812 53.832031 Z M 35.707031 47.285156 "/>
<path style=" stroke:none;fill-rule:nonzero;fill:rgb(0%,0%,0%);fill-opacity:0.235294;" d="M 55.175781 39.46875 C 55.105469 40.03125 54.851562 40.574219 54.417969 41.007812 L 45.0625 50.363281 L 43.660156 51.769531 L 37.441406 45.550781 L 37.113281 45.878906 L 43.660156 52.429688 L 54.417969 41.671875 C 55.023438 41.066406 55.273438 40.25 55.175781 39.46875 Z M 41.863281 53.441406 C 41.808594 53.464844 41.746094 53.488281 41.683594 53.507812 L 35.136719 55.378906 C 34.382812 55.59375 33.671875 55.117188 33.492188 54.441406 C 33.238281 55.425781 34.152344 56.320312 35.136719 56.039062 L 41.683594 54.167969 C 41.914062 54.101562 42.105469 53.984375 42.257812 53.832031 Z M 41.863281 53.441406 "/>
<path style="fill:none;stroke-width:3;stroke-linecap:round;stroke-linejoin:round;stroke:rgb(12.941176%,12.941176%,12.941176%);stroke-opacity:1;stroke-miterlimit:4;" d="M 412.866823 65.941921 C 404.555117 57.661462 391.212641 57.661462 382.932182 65.941921 L 296.8779 151.996204 L 349.247898 204.39745 L 435.302181 118.343167 C 443.613887 110.031461 443.613887 96.688985 435.302181 88.408526 Z M 412.866823 65.941921 " transform="matrix(0.125012,0,0,0.125012,0,26.877566)"/>
<path style="fill:none;stroke-width:3;stroke-linecap:round;stroke-linejoin:round;stroke:rgb(12.941176%,12.941176%,12.941176%);stroke-opacity:1;stroke-miterlimit:4;" d="M 285.628974 163.245129 C 284.441587 164.432516 283.47293 165.994867 282.94173 167.807194 L 267.97441 220.20844 C 265.724625 228.176429 273.09892 235.550725 281.066909 233.269692 L 333.436908 218.302372 C 335.280482 217.771172 336.811586 216.833762 338.03022 215.615128 Z M 285.628974 163.245129 " transform="matrix(0.125012,0,0,0.125012,0,26.877566)"/>
</g>
</svg>
